X: 081753
T: How Far to Ennis
S: B.Breathnach:"Ceol Rince na hEireann" IV/139 (gan ainm)
Z: B.Black
L: 1/8
M: 4/4
R: reel
K: G
(3D/E/F/|: GBdB cBAF|G2 Bd egdB|GBdB cBAG|FDAD BDAD|
GBdB cBAF|G2 Bd egdB|GBdB cBAG|FGAd BG G2 :|
g2 fg eB B2|c2 cB cdef|g2 fd eB B2|eaaa fdef|
g2 fg eB B2|c2 cB cdef|g3g a3a|b2 ba gedB :|
